img/adv-icon3.svg

<svg width="24" height="24" viewBox="0 0 24 24" fill="none" xmlns="http://www.w3.org/2000/svg">
    <g clip-path="url(#clip0_306_584)">
        <path d="M22 1.6H17.6V0.8C17.6 0.587827 17.5157 0.384344 17.3657 0.234315C17.2156 0.0842855 17.0122 0 16.8 0L9.36559 0C9.15356 0.000698586 8.95035 0.0849147 8.79999 0.2344L7.43439 1.6H1.99999C1.68173 1.6 1.3765 1.72643 1.15146 1.95147C0.926416 2.17652 0.799988 2.48174 0.799988 2.8V18C0.799988 18.3183 0.926416 18.6235 1.15146 18.8485C1.3765 19.0736 1.68173 19.2 1.99999 19.2H7.59999V20.186L5.37799 21.666C5.36162 21.6782 5.34612 21.6916 5.33159 21.706C5.32519 21.712 5.31839 21.7164 5.31279 21.7224C5.28221 21.7546 5.2572 21.7916 5.23879 21.832C5.23439 21.8412 5.23159 21.8504 5.22799 21.86C5.21033 21.9046 5.20085 21.952 5.19999 22V23.2C5.19999 23.4122 5.28427 23.6157 5.4343 23.7657C5.58433 23.9157 5.78782 24 5.99999 24H18C18.2122 24 18.4156 23.9157 18.5657 23.7657C18.7157 23.6157 18.8 23.4122 18.8 23.2V22C18.799 21.9524 18.7895 21.9054 18.772 21.8612C18.7684 21.8516 18.7656 21.8424 18.7612 21.8332C18.7428 21.7928 18.7178 21.7558 18.6872 21.7236C18.6816 21.7176 18.6748 21.7132 18.6684 21.7072C18.6539 21.6928 18.6384 21.6794 18.622 21.6672L16.4 20.186V19.2H22C22.3182 19.2 22.6235 19.0736 22.8485 18.8485C23.0736 18.6235 23.2 18.3183 23.2 18V2.8C23.2 2.48174 23.0736 2.17652 22.8485 1.95147C22.6235 1.72643 22.3182 1.6 22 1.6V1.6ZM17.6 4H20.8V13.6H17.6V4ZM16.8 13.6H7.19999V3.2H8.79999C9.01216 3.2 9.21564 3.11571 9.36567 2.96569C9.5157 2.81566 9.59999 2.61217 9.59999 2.4V0.8H16.8V13.6ZM6.39999 13.6H3.19999V4H6.39999V13.6ZM7.76559 2.4L8.79999 1.3656V2.4H7.76559ZM1.99999 2.4H6.63439C6.4849 2.55036 6.40069 2.75357 6.39999 2.9656V3.2H3.19999C2.98781 3.2 2.78433 3.28429 2.6343 3.43431C2.48427 3.58434 2.39999 3.78783 2.39999 4V13.6C2.39999 13.8122 2.48427 14.0157 2.6343 14.1657C2.78433 14.3157 2.98781 14.4 3.19999 14.4H20.8C21.0122 14.4 21.2156 14.3157 21.3657 14.1657C21.5157 14.0157 21.6 13.8122 21.6 13.6V4C21.6 3.78783 21.5157 3.58434 21.3657 3.43431C21.2156 3.28429 21.0122 3.2 20.8 3.2H17.6V2.4H22C22.1061 2.4 22.2078 2.44214 22.2828 2.51716C22.3578 2.59217 22.4 2.69391 22.4 2.8V15.2H1.59999V2.8C1.59999 2.69391 1.64213 2.59217 1.71715 2.51716C1.79216 2.44214 1.8939 2.4 1.99999 2.4V2.4ZM17.08 21.6H6.91999L8.11999 20.8H15.88L17.08 21.6ZM5.99999 23.2V22.4H18V23.2H5.99999ZM15.6 20H8.39999V19.2H15.6V20ZM22 18.4H1.99999C1.8939 18.4 1.79216 18.3579 1.71715 18.2828C1.64213 18.2078 1.59999 18.1061 1.59999 18V16H22.4V18C22.4 18.1061 22.3578 18.2078 22.2828 18.2828C22.2078 18.3579 22.1061 18.4 22 18.4Z" fill="white"/>
        <path d="M12.8 16.8H11.2C11.0939 16.8 10.9922 16.8421 10.9171 16.9172C10.8421 16.9922 10.8 17.0939 10.8 17.2C10.8 17.3061 10.8421 17.4078 10.9171 17.4828C10.9922 17.5579 11.0939 17.6 11.2 17.6H12.8C12.9061 17.6 13.0078 17.5579 13.0828 17.4828C13.1578 17.4078 13.2 17.3061 13.2 17.2C13.2 17.0939 13.1578 16.9922 13.0828 16.9172C13.0078 16.8421 12.9061 16.8 12.8 16.8Z" fill="white"/>
        <path d="M14.4 5.19999C14.4702 5.20006 14.5391 5.2186 14.5999 5.25375C14.6607 5.28891 14.7111 5.33943 14.7462 5.40025C14.7812 5.46107 14.7997 5.53004 14.7996 5.60024C14.7996 5.67044 14.7811 5.73939 14.7459 5.80016C14.7108 5.86094 14.6603 5.9114 14.5995 5.94648C14.5387 5.98155 14.4697 6.00001 14.3995 5.99999C14.3293 5.99998 14.2604 5.98149 14.1996 5.94638C14.1388 5.91127 14.0883 5.86079 14.0532 5.79999C13.9985 5.71155 13.9115 5.6479 13.8106 5.62253C13.7098 5.59716 13.603 5.61206 13.5129 5.66408C13.4229 5.71611 13.3566 5.80116 13.3282 5.9012C13.2998 6.00124 13.3115 6.10842 13.3608 6.19999C13.5058 6.44365 13.7326 6.62792 14.0008 6.71999V6.79999C14.0008 6.90608 14.0429 7.00782 14.118 7.08284C14.193 7.15785 14.2947 7.19999 14.4008 7.19999C14.5069 7.19999 14.6086 7.15785 14.6836 7.08284C14.7587 7.00782 14.8008 6.90608 14.8008 6.79999V6.72639C15.0675 6.63244 15.2924 6.4471 15.4356 6.20321C15.5787 5.95932 15.6309 5.67262 15.5829 5.39393C15.5349 5.11523 15.3898 4.86253 15.1732 4.6806C14.9567 4.49868 14.6828 4.39927 14.4 4.39999C14.3298 4.39993 14.2609 4.38138 14.2001 4.34623C14.1393 4.31108 14.0889 4.26056 14.0538 4.19974C14.0188 4.13892 14.0003 4.06995 14.0004 3.99975C14.0004 3.92955 14.019 3.8606 14.0541 3.79983C14.0892 3.73905 14.1397 3.68859 14.2005 3.65351C14.2613 3.61843 14.3303 3.59998 14.4005 3.59999C14.4707 3.60001 14.5396 3.6185 14.6004 3.65361C14.6612 3.68871 14.7117 3.7392 14.7468 3.79999C14.8015 3.88843 14.8885 3.95209 14.9894 3.97746C15.0902 4.00283 15.197 3.98793 15.2871 3.9359C15.3771 3.88388 15.4434 3.79883 15.4718 3.69879C15.5002 3.59875 15.4885 3.49157 15.4392 3.39999C15.2944 3.15649 15.0679 2.97223 14.8 2.87999V2.79999C14.8 2.69391 14.7579 2.59217 14.6828 2.51715C14.6078 2.44214 14.5061 2.39999 14.4 2.39999C14.2939 2.39999 14.1922 2.44214 14.1172 2.51715C14.0421 2.59217 14 2.69391 14 2.79999V2.87359C13.7333 2.96752 13.5085 3.1528 13.3653 3.39661C13.2222 3.64042 13.1699 3.92702 13.2178 4.20567C13.2658 4.48431 13.4107 4.737 13.6271 4.91899C13.8435 5.10099 14.1173 5.20053 14.4 5.19999V5.19999Z" fill="white"/>
        <path d="M14.4 10.8C14.4702 10.8001 14.5391 10.8186 14.5999 10.8538C14.6607 10.8889 14.7111 10.9394 14.7462 11.0003C14.7812 11.0611 14.7997 11.13 14.7996 11.2002C14.7996 11.2704 14.7811 11.3394 14.7459 11.4002C14.7108 11.4609 14.6603 11.5114 14.5995 11.5465C14.5387 11.5816 14.4697 11.6 14.3995 11.6C14.3293 11.6 14.2604 11.5815 14.1996 11.5464C14.1388 11.5113 14.0883 11.4608 14.0532 11.4C13.9985 11.3116 13.9115 11.2479 13.8106 11.2225C13.7098 11.1972 13.603 11.2121 13.5129 11.2641C13.4229 11.3161 13.3566 11.4012 13.3282 11.5012C13.2998 11.6012 13.3115 11.7084 13.3608 11.8C13.5058 12.0437 13.7326 12.2279 14.0008 12.32V12.4C14.0008 12.5061 14.0429 12.6078 14.118 12.6828C14.193 12.7579 14.2947 12.8 14.4008 12.8C14.5069 12.8 14.6086 12.7579 14.6836 12.6828C14.7587 12.6078 14.8008 12.5061 14.8008 12.4V12.3264C15.0675 12.2325 15.2924 12.0471 15.4356 11.8032C15.5787 11.5593 15.6309 11.2726 15.5829 10.9939C15.5349 10.7152 15.3898 10.4625 15.1732 10.2806C14.9567 10.0987 14.6828 9.99927 14.4 10C14.3298 9.99993 14.2609 9.98139 14.2001 9.94624C14.1393 9.91109 14.0889 9.86057 14.0538 9.79975C14.0188 9.73893 14.0003 9.66996 14.0004 9.59976C14.0004 9.52956 14.019 9.46061 14.0541 9.39983C14.0892 9.33906 14.1397 9.28859 14.2005 9.25352C14.2613 9.21844 14.3303 9.19998 14.4005 9.2C14.4707 9.20002 14.5396 9.21851 14.6004 9.25361C14.6612 9.28872 14.7117 9.33921 14.7468 9.4C14.8015 9.48844 14.8885 9.5521 14.9894 9.57747C15.0902 9.60284 15.197 9.58793 15.2871 9.53591C15.3771 9.48389 15.4434 9.39884 15.4718 9.2988C15.5002 9.19875 15.4885 9.09158 15.4392 9C15.2944 8.75649 15.0679 8.57224 14.8 8.48V8.4C14.8 8.29391 14.7579 8.19217 14.6828 8.11716C14.6078 8.04214 14.5061 8 14.4 8C14.2939 8 14.1922 8.04214 14.1172 8.11716C14.0421 8.19217 14 8.29391 14 8.4V8.4736C13.7333 8.56753 13.5085 8.7528 13.3653 8.99661C13.2222 9.24042 13.1699 9.52703 13.2178 9.80567C13.2658 10.0843 13.4107 10.337 13.6271 10.519C13.8435 10.701 14.1173 10.8005 14.4 10.8V10.8Z" fill="white"/>
        <path d="M8.8 4.6344L8.6828 4.5172C8.60736 4.44434 8.50632 4.40402 8.40144 4.40493C8.29656 4.40585 8.19623 4.44791 8.12207 4.52208C8.04791 4.59624 8.00584 4.69656 8.00493 4.80144C8.00402 4.90632 8.04433 5.00736 8.1172 5.0828L8.5172 5.4828C8.59221 5.55779 8.69393 5.59992 8.8 5.59992C8.90606 5.59992 9.00779 5.55779 9.0828 5.4828L10.2828 4.2828C10.3557 4.20736 10.396 4.10632 10.3951 4.00144C10.3942 3.89656 10.3521 3.79624 10.2779 3.72208C10.2038 3.64791 10.1034 3.60585 9.99856 3.60493C9.89368 3.60402 9.79264 3.64434 9.7172 3.7172L8.8 4.6344Z" fill="white"/>
        <path d="M8.8 7.2C8.90609 7.2 9.00783 7.15786 9.08284 7.08284C9.15786 7.00783 9.2 6.90609 9.2 6.8C9.2 6.69391 9.15786 6.59217 9.08284 6.51716C9.00783 6.44214 8.90609 6.4 8.8 6.4H8.4C8.29391 6.4 8.19217 6.44214 8.11716 6.51716C8.04214 6.59217 8 6.69391 8 6.8C8 6.90609 8.04214 7.00783 8.11716 7.08284C8.19217 7.15786 8.29391 7.2 8.4 7.2H8.8Z" fill="white"/>
        <path d="M10 6.8C10 6.90609 10.0421 7.00783 10.1172 7.08284C10.1922 7.15786 10.2939 7.2 10.4 7.2H12C12.1061 7.2 12.2078 7.15786 12.2828 7.08284C12.3579 7.00783 12.4 6.90609 12.4 6.8C12.4 6.69391 12.3579 6.59217 12.2828 6.51716C12.2078 6.44214 12.1061 6.4 12 6.4H10.4C10.2939 6.4 10.1922 6.44214 10.1172 6.51716C10.0421 6.59217 10 6.69391 10 6.8Z" fill="white"/>
        <path d="M8.5172 11.0828C8.59221 11.1578 8.69393 11.1999 8.8 11.1999C8.90606 11.1999 9.00779 11.1578 9.0828 11.0828L10.2828 9.8828C10.3557 9.80736 10.396 9.70632 10.3951 9.60144C10.3942 9.49656 10.3521 9.39624 10.2779 9.32208C10.2038 9.24791 10.1034 9.20584 9.99856 9.20493C9.89368 9.20402 9.79264 9.24434 9.7172 9.3172L8.8 10.2344L8.6828 10.1172C8.60736 10.0443 8.50632 10.004 8.40144 10.0049C8.29656 10.0058 8.19623 10.0479 8.12207 10.1221C8.04791 10.1962 8.00584 10.2966 8.00493 10.4014C8.00402 10.5063 8.04433 10.6074 8.1172 10.6828L8.5172 11.0828Z" fill="white"/>
        <path d="M8.8 12H8.4C8.29391 12 8.19217 12.0421 8.11716 12.1172C8.04214 12.1922 8 12.2939 8 12.4C8 12.5061 8.04214 12.6078 8.11716 12.6828C8.19217 12.7579 8.29391 12.8 8.4 12.8H8.8C8.90609 12.8 9.00783 12.7579 9.08284 12.6828C9.15786 12.6078 9.2 12.5061 9.2 12.4C9.2 12.2939 9.15786 12.1922 9.08284 12.1172C9.00783 12.0421 8.90609 12 8.8 12Z" fill="white"/>
        <path d="M12 12H10.4C10.2939 12 10.1922 12.0421 10.1172 12.1172C10.0421 12.1922 10 12.2939 10 12.4C10 12.5061 10.0421 12.6078 10.1172 12.6828C10.1922 12.7579 10.2939 12.8 10.4 12.8H12C12.1061 12.8 12.2078 12.7579 12.2828 12.6828C12.3579 12.6078 12.4 12.5061 12.4 12.4C12.4 12.2939 12.3579 12.1922 12.2828 12.1172C12.2078 12.0421 12.1061 12 12 12Z" fill="white"/>
    </g>
    <defs>
        <clipPath id="clip0_306_584">
            <rect width="24" height="24" fill="white"/>
        </clipPath>
    </defs>
</svg>

<svg width="24" height="24" fill="none" xmlns="http://www.w3.org/2000/svg"><g clip-path="url(#clip0_306_584)" fill="#fff"><path d="M22 1.6h-4.4V.8a.8.8 0 00-.8-.8H9.366A.806.806 0 008.8.234L7.434 1.6H2A1.2 1.2 0 00.8 2.8V18A1.2 1.2 0 002 19.2h5.6v.986l-2.222 1.48a.437.437 0 00-.046.04l-.02.016a.4.4 0 00-.073.11l-.011.028A.4.4 0 005.2 22v1.2a.8.8 0 00.8.8h12a.8.8 0 00.8-.8V22a.4.4 0 00-.028-.139l-.01-.028a.4.4 0 00-.075-.11l-.019-.016a.43.43 0 00-.046-.04L16.4 20.186V19.2H22a1.2 1.2 0 001.2-1.2V2.8A1.2 1.2 0 0022 1.6zM17.6 4h3.2v9.6h-3.2V4zm-.8 9.6H7.2V3.2h1.6a.8.8 0 00.8-.8V.8h7.2v12.8zm-10.4 0H3.2V4h3.2v9.6zM7.766 2.4L8.8 1.366V2.4H7.766zM2 2.4h4.634a.806.806 0 00-.234.566V3.2H3.2a.8.8 0 00-.8.8v9.6a.8.8 0 00.8.8h17.6a.8.8 0 00.8-.8V4a.8.8 0 00-.8-.8h-3.2v-.8H22a.4.4 0 01.4.4v12.4H1.6V2.8a.4.4 0 01.4-.4zm15.08 19.2H6.92l1.2-.8h7.76l1.2.8zM6 23.2v-.8h12v.8H6zm9.6-3.2H8.4v-.8h7.2v.8zm6.4-1.6H2a.4.4 0 01-.4-.4v-2h20.8v2a.4.4 0 01-.4.4z"/><path d="M12.8 16.8h-1.6a.4.4 0 100 .8h1.6a.4.4 0 100-.8zm1.6-11.6a.4.4 0 11-.347.6.4.4 0 00-.692.4c.145.244.372.428.64.52v.08a.4.4 0 10.8 0v-.074A1.198 1.198 0 0014.4 4.4a.4.4 0 11.347-.6.4.4 0 00.692-.4 1.197 1.197 0 00-.639-.52V2.8a.4.4 0 10-.8 0v.074a1.197 1.197 0 00.4 2.326zm0 5.6a.4.4 0 11-.347.6.4.4 0 00-.692.4c.145.244.372.428.64.52v.08a.4.4 0 10.8 0v-.074A1.197 1.197 0 0014.4 10a.4.4 0 11.347-.6.4.4 0 00.692-.4 1.197 1.197 0 00-.639-.52V8.4a.4.4 0 10-.8 0v.074a1.197 1.197 0 00.4 2.326zM8.8 4.634l-.117-.117a.4.4 0 00-.566.566l.4.4a.4.4 0 00.566 0l1.2-1.2a.4.4 0 00-.566-.566l-.917.917zm0 2.566a.4.4 0 100-.8h-.4a.4.4 0 100 .8h.4zm1.2-.4a.4.4 0 00.4.4H12a.4.4 0 100-.8h-1.6a.4.4 0 00-.4.4zm-1.483 4.283a.4.4 0 00.566 0l1.2-1.2a.4.4 0 00-.566-.566l-.917.917-.117-.117a.4.4 0 00-.566.566l.4.4zM8.8 12h-.4a.4.4 0 100 .8h.4a.4.4 0 100-.8zm3.2 0h-1.6a.4.4 0 100 .8H12a.4.4 0 100-.8z"/></g><defs><clipPath id="clip0_306_584"><path fill="#fff" d="M0 0h24v24H0z"/></clipPath></defs></svg>
